X: 77
T:Sleep Soond in da Mornin'
M:C|
L:1/8
R:reel
A:shetland
K:ADor
AB||:A a2 ^g a2 ef|gedB GBdB|A a2 ^g a2 ef|1gedB A3  B :|2gedB A2 AB||
cAeA cAeA|BcdB G3  B|cAeA cAeA|BAGB A2 AB|cAeA cAeA|BcdB G3  B|ABcd efga
|gedB A ||
